file/nyu.svg

<svg clip-rule="evenodd" fill-rule="evenodd" viewBox="0 0 560 400" xmlns="http://www.w3.org/2000/svg"><g transform="matrix(3.69276 0 0 3.69276 30 157.349)"><path d="m2.9 2.3h18.4v18.6h-18.4z" fill="#fff" fill-rule="nonzero"/><path d="m2.9 2.3h18.4v18.6h-18.4z" fill="none" stroke="#231f20"/><path d="m29 9h1l2.5 3.2v-3.3h1.2v5.3h-1l-2.7-3.3v3.3h-1v-5.3m6.7.1h4v1h-2.9v1h2.5v1h-2.5v1.2h2.9v1h-4v-5.3m5.3.1h1.3l1 3.5 1.2-3.6h1l1.2 3.6 1.1-3.6h1.2l-1.8 5.3h-1l-1.2-3.4-1.2 3.4h-1zm14 3.1-2-3.1h1.4l1.3 2.2 1.2-2.2h1.4l-2 3.2v2h-1.3v-2m4-.6c0-1.5 1.1-2.7 2.7-2.7s2.8 1.2 2.8 2.7-1.2 2.7-2.8 2.7-2.7-1.3-2.7-2.7m4.4 0c0-1-.7-1.7-1.6-1.7-1 0-1.6.8-1.6 1.7s.7 1.6 1.6 1.6c1 0 1.6-.7 1.6-1.6zm2.9-2.6h2.4c.7 0 1.2.1 1.5.5.3.3.5.7.5 1.2 0 .8-.5 1.4-1.2 1.6l1.3 1.9h-1.3l-1.2-1.7h-.9v1.7h-1.1v-5.3m2.3 2.6c.6 0 .9-.3.9-.7 0-.6-.4-.8-1-.8h-1v1.5zm3.9-2.5h1.1v2.2l2.1-2.2h1.4l-2.1 2.2 2.2 3h-1.4l-1.6-2.2-.6.6v1.6h-1.1v-5.3m9.1 3.1v-3h1.1v3c0 .8.5 1.2 1.2 1.2s1.1-.4 1.1-1.2v-3h1.2v3c0 1.5-1 2.3-2.3 2.3-1.4 0-2.3-.8-2.3-2.4m6.4-2.9h1.2l2.4 3.2v-3.3h1.2v5.3h-1l-2.6-3.3v3.3h-1.1v-5.3m6.7 0h1.2v5.2h-1.2zm2.8.1h1.3l1.3 3.6 1.4-3.7h1.2l-2 5.3h-1l-2.3-5.2m6.9 0h4v1h-2.8v1h2.4v1h-2.4v1.2h2.8v1h-4v-5.3m5.8.1h2.4c.6 0 1.2.1 1.5.5.3.3.5.7.5 1.2 0 .8-.5 1.4-1.2 1.6l1.3 1.9h-1.3l-1.2-1.7h-.9v1.7h-1.1v-5.3m2.3 2.6c.6 0 .9-.3.9-.7 0-.6-.4-.8-1-.8h-1v1.5zm3.5 1.9.7-.8c.4.4 1 .6 1.5.6s.8-.1.8-.4c0-.4-.2-.5-1-.7-1.1-.3-1.8-.6-1.8-1.6s.8-1.6 1.8-1.6c.717-.046 1.427.167 2 .6l-.6 1c-.5-.4-1-.6-1.4-.6s-.7.2-.7.4c0 .4.3.5 1.2.8 1 .2 1.6.6 1.6 1.5 0 1-.8 1.7-1.9 1.7-.8 0-1.6-.3-2.2-.9m6-4.5h1.2v5.2h-1.2zm4.4 1.1h-1.6v-1h4.3v1h-1.6v4.2h-1.1zm5.9 2.1-2-3.2h1.3l1.2 2.2 1.3-2.2h1.3l-2 3.2v2h-1.1zm-109.2 11h-23.1v-23.1h23.1zm-15.1-15.7c-1 1-1.4 4.7 2.7 4.7-2.4-1.4-2.1-3.5-1.1-4.9 0-.2-.7-1.9-.7-1.6 0 .7-.7 1.6-.9 1.8zm3.4 4.6c-1.6-3 1.8-5.1 1.8-5.5 0-1-.7-3-.8-2.8-.2 1-1.5 2.3-1.8 2.6-2.4 2.7-1.8 4.7.7 5.7zm.4 0c.2-3.1 3.2-3.5 3.4-4 .4-1-.4-3-.5-2.9-.3.8-.9 1.5-.9 1.5-2.5 1.8-3 3.4-2 5.3zm.3 0c4.8.5 4.6-5 4.6-5-.3.6-1 1-1 1-.6.8-3 1-3.6 4zm-2.2 1.4h3.1v-1h-3.2v1zm1.3 6.7c0 .2.4.3.5 0l.8-6.3h-2z" fill="#57068c" fill-rule="nonzero"/></g></svg>

<?xml version="1.0" encoding="UTF-8" standalone="no"?>
<!DOCTYPE svg PUBLIC "-//W3C//DTD SVG 1.1//EN" "http://www.w3.org/Graphics/SVG/1.1/DTD/svg11.dtd">
<svg width="100%" height="100%" viewBox="0 0 560 400" version="1.1" xmlns="http://www.w3.org/2000/svg" xmlns:xlink="http://www.w3.org/1999/xlink" xml:space="preserve" xmlns:serif="http://www.serif.com/" style="fill-rule:evenodd;clip-rule:evenodd;">
    <g transform="matrix(3.69276,0,0,3.69276,30,157.349)">
        <rect x="2.9" y="2.3" width="18.4" height="18.6" style="fill:white;fill-rule:nonzero;"/>
        <rect x="2.9" y="2.3" width="18.4" height="18.6" style="fill:none;fill-rule:nonzero;stroke:rgb(35,31,32);stroke-width:1px;"/>
        <path d="M29,9L30,9L32.5,12.2L32.5,8.9L33.7,8.9L33.7,14.2L32.7,14.2L30,10.9L30,14.2L29,14.2L29,8.9M35.7,9L39.7,9L39.7,10L36.8,10L36.8,11L39.3,11L39.3,12L36.8,12L36.8,13.2L39.7,13.2L39.7,14.2L35.7,14.2L35.7,8.9M41,9L42.3,9L43.3,12.5L44.5,8.9L45.5,8.9L46.7,12.5L47.8,8.9L49,8.9L47.2,14.2L46.2,14.2L45,10.8L43.8,14.2L42.8,14.2L41,9M55,12.1L53,9L54.4,9L55.7,11.2L56.9,9L58.3,9L56.3,12.2L56.3,14.2L55,14.2L55,12.2M59,11.6C59,10.1 60.1,8.9 61.7,8.9C63.3,8.9 64.5,10.1 64.5,11.6C64.5,13.1 63.3,14.3 61.7,14.3C60.1,14.3 59,13 59,11.6M63.4,11.6C63.4,10.6 62.7,9.9 61.8,9.9C60.8,9.9 60.2,10.7 60.2,11.6C60.2,12.5 60.9,13.2 61.8,13.2C62.8,13.2 63.4,12.5 63.4,11.6ZM66.3,9L68.7,9C69.4,9 69.9,9.1 70.2,9.5C70.5,9.8 70.7,10.2 70.7,10.7C70.7,11.5 70.2,12.1 69.5,12.3L70.8,14.2L69.5,14.2L68.3,12.5L67.4,12.5L67.4,14.2L66.3,14.2L66.3,8.9M68.6,11.5C69.2,11.5 69.5,11.2 69.5,10.8C69.5,10.2 69.1,10 68.5,10L67.5,10L67.5,11.5L68.6,11.5ZM72.5,9L73.6,9L73.6,11.2L75.7,9L77.1,9L75,11.2L77.2,14.2L75.8,14.2L74.2,12L73.6,12.6L73.6,14.2L72.5,14.2L72.5,8.9M81.6,12L81.6,9L82.7,9L82.7,12C82.7,12.8 83.2,13.2 83.9,13.2C84.6,13.2 85,12.8 85,12L85,9L86.2,9L86.2,12C86.2,13.5 85.2,14.3 83.9,14.3C82.5,14.3 81.6,13.5 81.6,11.9M88,9L89.2,9L91.6,12.2L91.6,8.9L92.8,8.9L92.8,14.2L91.8,14.2L89.2,10.9L89.2,14.2L88.1,14.2L88.1,8.9M94.8,8.9L96,8.9L96,14.1L94.8,14.1L94.8,8.9ZM97.6,9L98.9,9L100.2,12.6L101.6,8.9L102.8,8.9L100.8,14.2L99.8,14.2L97.5,9M104.4,9L108.4,9L108.4,10L105.6,10L105.6,11L108,11L108,12L105.6,12L105.6,13.2L108.4,13.2L108.4,14.2L104.4,14.2L104.4,8.9M110.2,9L112.6,9C113.2,9 113.8,9.1 114.1,9.5C114.4,9.8 114.6,10.2 114.6,10.7C114.6,11.5 114.1,12.1 113.4,12.3L114.7,14.2L113.4,14.2L112.2,12.5L111.3,12.5L111.3,14.2L110.2,14.2L110.2,8.9M112.5,11.5C113.1,11.5 113.4,11.2 113.4,10.8C113.4,10.2 113,10 112.4,10L111.4,10L111.4,11.5L112.5,11.5ZM116,13.4L116.7,12.6C117.1,13 117.7,13.2 118.2,13.2C118.7,13.2 119,13.1 119,12.8C119,12.4 118.8,12.3 118,12.1C116.9,11.8 116.2,11.5 116.2,10.5C116.2,9.5 117,8.9 118,8.9C118.717,8.854 119.427,9.067 120,9.5L119.4,10.5C118.9,10.1 118.4,9.9 118,9.9C117.6,9.9 117.3,10.1 117.3,10.3C117.3,10.7 117.6,10.8 118.5,11.1C119.5,11.3 120.1,11.7 120.1,12.6C120.1,13.6 119.3,14.3 118.2,14.3C117.4,14.3 116.6,14 116,13.4M122,8.9L123.2,8.9L123.2,14.1L122,14.1L122,8.9ZM126.4,10L124.8,10L124.8,9L129.1,9L129.1,10L127.5,10L127.5,14.2L126.4,14.2L126.4,10M132.3,12.1L130.3,8.9L131.6,8.9L132.8,11.1L134.1,8.9L135.4,8.9L133.4,12.1L133.4,14.1L132.3,14.1L132.3,12.1M23.1,23.1L0,23.1L0,0L23.1,0L23.1,23.1ZM8,7.4C7,8.4 6.6,12.1 10.7,12.1C8.3,10.7 8.6,8.6 9.6,7.2C9.6,7 8.9,5.3 8.9,5.6C8.9,6.3 8.2,7.2 8,7.4ZM11.4,12C9.8,9 13.2,6.9 13.2,6.5C13.2,5.5 12.5,3.5 12.4,3.7C12.2,4.7 10.9,6 10.6,6.3C8.2,9 8.8,11 11.3,12L11.4,12ZM11.8,12C12,8.9 15,8.5 15.2,8C15.6,7 14.8,5 14.7,5.1C14.4,5.9 13.8,6.6 13.8,6.6C11.3,8.4 10.8,10 11.8,11.9L11.8,12ZM12.1,12C16.9,12.5 16.7,7 16.7,7C16.4,7.6 15.7,8 15.7,8C15.1,8.8 12.7,9 12.1,12ZM9.9,13.4L13,13.4L13,12.4L9.8,12.4L9.8,13.4L9.9,13.4ZM11.2,20.1C11.2,20.3 11.6,20.4 11.7,20.1L12.5,13.8L10.5,13.8L11.2,20.1Z" style="fill:rgb(87,6,140);fill-rule:nonzero;"/>
    </g>
</svg>
